findly-builder/apps/searchassist/src/assets/icons/edit-blue.svg

<svg width="13" height="12" viewBox="0 0 13 12" fill="none" xmlns="http://www.w3.org/2000/svg">
<path d="M4.95226 0.516437C4.95226 0.231217 4.72104 0 4.43582 0H1.30031L1.23542 0.00158954C0.547523 0.0353678 0 0.603263 0 1.2998V10.7002L0.00159165 10.7651C0.0354142 11.4532 0.604037 12 1.30031 12H10.7068L10.7717 11.9984C11.4596 11.9646 12.0072 11.3967 12.0072 10.7002V6.78337L12.005 6.73636C11.9813 6.47317 11.7601 6.26693 11.4907 6.26693C11.2055 6.26693 10.9743 6.49815 10.9743 6.78337V10.7002L10.9722 10.7337C10.9557 10.8654 10.8434 10.9671 10.7068 10.9671H1.30031L1.26673 10.965C1.13473 10.9486 1.03287 10.8364 1.03287 10.7002V1.2998L1.03495 1.26629C1.05143 1.13459 1.16379 1.03287 1.30031 1.03287H4.43582L4.48283 1.03076C4.74602 1.00702 4.95226 0.785811 4.95226 0.516437Z" fill="#0D6EFD"/>
<path fill-rule="evenodd" clip-rule="evenodd" d="M9.55791 0.151142L4.85464 4.85134C4.75772 4.9482 4.70326 5.07961 4.70326 5.21663V6.78337C4.70326 7.06859 4.93448 7.2998 5.2197 7.2998H6.78745C6.92436 7.2998 7.05567 7.24544 7.15251 7.14866L11.8558 2.44846C12.0576 2.24676 12.0576 1.91958 11.8558 1.71787L10.288 0.151142C10.0864 -0.0503806 9.75956 -0.0503806 9.55791 0.151142ZM9.92269 1.24623L10.76 2.08285L6.57359 6.26664H5.736V5.43033L9.92269 1.24623Z" fill="#0D6EFD"/>
</svg>

<svg width="13" height="12" fill="none" xmlns="http://www.w3.org/2000/svg"><path d="M4.952.516A.516.516 0 0 0 4.436 0H1.3l-.065.002A1.3 1.3 0 0 0 0 1.3v9.4l.002.065A1.3 1.3 0 0 0 1.3 12h9.407l.065-.002a1.3 1.3 0 0 0 1.235-1.298V6.783l-.002-.047a.516.516 0 0 0-1.03.047V10.7l-.003.034a.267.267 0 0 1-.265.233H1.3l-.033-.002a.267.267 0 0 1-.234-.265V1.3l.002-.034a.267.267 0 0 1 .265-.233h3.136l.047-.002a.516.516 0 0 0 .47-.515Z" fill="#0D6EFD"/><path fill-rule="evenodd" clip-rule="evenodd" d="m9.558.151-4.703 4.7a.516.516 0 0 0-.152.366v1.566c0 .286.231.517.517.517h1.567a.516.516 0 0 0 .366-.151l4.703-4.7a.517.517 0 0 0 0-.731L10.288.15a.516.516 0 0 0-.73 0Zm.365 1.095.837.837-4.186 4.184h-.838V5.43l4.187-4.184Z" fill="#0D6EFD"/></svg>
